X:6407
T:Going to the Well for Water
T:Kaiser, The
R:slide
D:Sean Ryan: Siuil Uait
Z:id:hn-slide-14
M:6/8
K:D
A2f A2f|A2f fed|B2g B2g|B2g gfe|
c2c BcB|Ace a2f|gfe cde|1 d3 dcB:|2 d3 d2e||
|:f2f fed|e2e edc|d2d dcB|c2c cBA|
GBB GBB|FAA FAA|EFE e2d|1 cBc d2e:|2 cBc dcB||
